X:29
T:Reels 9 - McQuillen's Squeezebox
T:Nelly Bly
K:Emaj
M:4/4
M:4/4
M:4/4
|:"E"G2 A2 B4 | G2 A2 B4 | G2 A2 B2 c2 | "B"F8 |
"C#m"G2 A2 B4 | "A"c2 d2 "F#/A#"e4 | "B" d2 e2 f2 g2 | "A"e8 :|
|:"E" g4 e4 | "A" e4 c4 | "E/G#"B4 G4 | "B"F8|
"E"G2 A2 B4 | "A"c2 d2 "F#/A#"e4 | "B" d2 e2 f2 g2 | "A"e8 :|
T:McQuillen's Squeezebox
K:Emaj
L:1/4
GA |"E"B3/2c/2 BA | GB "A"ec | "E"B3/2c/2 BA | "E/G#"G2FG |
"F#m"A3/2B/2 AG | "B"FB df | "A"e3/2f/2 ec|1 "B"BA GA:|2"E"ed ef||
"E"g3/2a/2 gf | eB "B"ef | "E"g3/2a/2 gf | "C#m"e2 de |
"F#m"f3/2g/2 ag | "B"fB de |1 "F#m"f3/2g/2 ag | "B"f2 ef :|2 "F#m"fe "B7"gf | "E"e2 ||
%%newpage

